X:1603
T:E Doubling Scale
C: Kevin Fraser
B: https://bagpipes.ksfraser.com
O: Kevin Fraser
Z:Kevin Fraser
Q:1/4=78
K:HP
M:4/4
L:1/4
%%MIDI gracedivider 4
%%MIDI gchord
%%MIDI beatstring 
|: G {gef}e A {gef}e | B {gef}e c {gef}e | d {gef}e e {gef}e | f {gef}e g {aef}e | 
w: em chehe en chehe | o chehe o chehe   | a chehe e chehe | ve chehe di chehe |
w: |||- thumb gracenote ^|
   a {ef}e a {ef}e | g {aef}e f {gef}e | e {gef}e d {gef}e | c {gef}e B {gef}e | A {gef}e G {gef}e :|
w: I chehe  I chehe  |  di chehe ve chehe  | e chehe a chehe | o chehe o chehe | en chehe em chehe
w: ^ Half Doublings ^|
W:
W: Note the High A gracenote from High G for this doubling!
W: Note the Half Doubling from High A
W:
W: http://svenax.net/site/canntaireachd/5/ has a consolidated Doubling and Throws page
W: without diagrams so the canntaireachd here might be for a different movement...
W:
W:http://www.teachyourselfbagpipes.co.uk/cant.html concurs
W:
W:
W:
T:D Doubling Scale
C: Kevin Fraser
B: https://bagpipes.ksfraser.com
O: Kevin Fraser
Z:Kevin Fraser
Q:1/4=78
K:HP
M:4/4
L:1/4
%%MIDI gracedivider 4
%%MIDI gchord
%%MIDI beatstring 
|: G {gde}d A {gde}d | B {gde}d c {gde}d | d {gde}d e {gde}d | f {gde}d g {ade}d | 
w: em hada en hada | o hada o hada   | a hada e hada | ve hada di hada |
w: |||- thumb gracenote ^|
   a {de}d a {de}d | g {ade}d f {gde}d | e {gde}d d {gde}d | c {gde}d B {gde}d | A {gde}d G {gde}d :|
w: I ada  I ada  |  di hada ve hada | e hada a hada | o hada o hada | en hada em hada
w: ^ Half Doublings ^|
W:
W: Note the High A gracenote from High G for this doubling!
W: Note the Half Doubling from High A



